content/logo-fewo-donau.svg

<?xml version="1.0" encoding="UTF-8"?>
<svg width="160px" height="75px" viewBox="0 0 160 75" version="1.1" xmlns="http://www.w3.org/2000/svg" xmlns:xlink="http://www.w3.org/1999/xlink">
    <title>logo-fewo-donau</title>
    <defs>
        <polygon id="path-1" points="0 0 28.8387164 0 28.8387164 49.9953246 0 49.9953246"></polygon>
    </defs>
    <g id="logo-fewo-donau" stroke="none" stroke-width="1" fill="none" fill-rule="evenodd">
        <g transform="translate(0, 12)">
            <polygon id="_2223750657632" fill="#727376" fill-rule="nonzero" points="64.7121149 20.6474934 64.7121149 21.78466 61.7060414 21.78466 61.7060414 23.6042341 64.4353129 23.6042341 64.4353129 24.7313547 61.7060414 24.7313547 61.7060414 27.5296922 60.341585 27.5296922 60.341585 20.6474934"></polygon>
            <polygon id="_2223750658832" fill="#727376" fill-rule="nonzero" points="73.7459427 24.5038855 73.7459427 26.3925256 77.0288182 26.3925256 77.0288182 27.5296922 72.3813069 27.5296922 72.3813069 20.6474934 76.9595729 20.6474934 76.9595729 21.78466 73.7459427 21.78466 73.7459427 23.396498 76.5541467 23.396498 76.5541467 24.5038855"></polygon>
            <polygon id="_2223750657968" fill="#727376" fill-rule="nonzero" points="87.1668044 27.5296922 85.6539907 27.5296922 84.0717524 20.6474934 85.4265216 20.6474934 86.4648431 25.4828283 86.5834213 25.4828283 87.8194329 20.6474934 88.9863785 20.6474934 90.2421233 25.4828283 90.3608809 25.4828283 91.399023 20.6474934 92.7143259 20.6474934 91.1419541 27.5296922 89.6092279 27.5296922 88.412862 23.0899169 88.3138375 23.0899169 87.1668044 27.5296922"></polygon>
            <path d="M103.114583,27.6285372 C102.486711,27.6285372 101.932928,27.5000925 101.453233,27.2428442 C100.971206,26.9857753 100.593048,26.5952387 100.316066,26.0662114 C100.044287,25.5321611 99.9106403,24.874689 99.9106403,24.0887722 C99.9106403,23.297653 100.044287,22.6400015 100.316066,22.1109742 C100.593048,21.5844584 100.971206,21.1914103 101.453233,20.9343414 C101.932928,20.6772725 102.486711,20.5486483 103.114583,20.5486483 C103.747479,20.5486483 104.303594,20.6772725 104.785621,20.9343414 C105.265315,21.1914103 105.640962,21.5844584 105.912921,22.1109742 C106.182368,22.6400015 106.318347,23.297653 106.318347,24.0887722 C106.318347,24.874689 106.182368,25.5321611 105.912921,26.0662114 C105.640962,26.5952387 105.265315,26.9857753 104.785621,27.2428442 C104.303594,27.5000925 103.747479,27.6285372 103.114583,27.6285372 Z M103.114583,26.4519044 C103.700478,26.4519044 104.14537,26.2639015 104.44944,25.8882544 C104.758533,25.5124279 104.914245,24.9141553 104.914245,24.0887722 C104.914245,23.2655418 104.758533,22.6647576 104.44944,22.2891106 C104.14537,21.9132841 103.700478,21.7254606 103.114583,21.7254606 C102.526177,21.7254606 102.078773,21.9132841 101.769681,22.2891106 C101.465611,22.6647576 101.314922,23.2655418 101.314922,24.0887722 C101.314922,24.9141553 101.465611,25.5124279 101.769681,25.8882544 C102.078773,26.2639015 102.526177,26.4519044 103.114583,26.4519044 Z" id="_2223750658928" fill="#727376" fill-rule="nonzero"></path>
            <path d="M47.8723984,32.1095727 C49.3014359,32.1095727 50.5546692,32.356775 51.6301249,32.8511797 C52.7028897,33.3455843 53.5978769,34.0131024 54.3098842,34.8487108 C55.026735,35.6866513 55.5656289,36.6261278 55.9215429,37.6667814 C56.2776362,38.7101259 56.4555932,39.7828907 56.4555932,40.8904576 C56.4555932,41.9978451 56.2776362,43.0733007 55.9215429,44.1139544 C55.5656289,45.1572988 55.026735,46.0965959 54.3098842,46.9322044 C53.5978769,47.7703243 52.7028897,48.4401744 51.6301249,48.939602 C50.5546692,49.4340067 49.3014359,49.681209 47.8723984,49.681209 C46.4015625,49.681209 45.1137066,49.4340067 44.0061397,48.939602 C42.9035958,48.4401744 41.9888754,47.7703243 41.257135,46.9322044 C40.5253946,46.0965959 39.9741227,45.1572988 39.6058307,44.1139544 C39.2423823,43.0733007 39.0619138,41.9978451 39.0619138,40.8904576 C39.0619138,39.7828907 39.2423823,38.7101259 39.6058307,37.6667814 C39.9741227,36.6261278 40.5253946,35.6866513 41.257135,34.8487108 C41.9888754,34.0131024 42.9035958,33.3455843 44.0061397,32.8511797 C45.1137066,32.356775 46.4015625,32.1095727 47.8723984,32.1095727 Z M47.8723984,46.7542474 C48.9058763,46.7542474 49.8006842,46.5441792 50.5521577,46.121352 C51.3038106,45.6936812 51.8995718,45.1300312 52.3419528,44.430402 C52.7895361,43.7332843 53.0885827,42.9669212 53.2417836,42.1363358 C53.4000074,41.3057503 53.4000074,40.4751648 53.2417836,39.6445794 C53.0885827,38.8138145 52.7895361,38.0499629 52.3419528,37.3503337 C51.8995718,36.653216 51.3038106,36.0920775 50.5521577,35.6694297 C49.8006842,35.249114 48.9058763,35.0365343 47.8723984,35.0365343 C46.777389,35.0365343 45.8379125,35.249114 45.0543278,35.6694297 C44.2755866,36.0920775 43.6550693,36.653216 43.1952874,37.3503337 C42.7329939,38.0499629 42.4190577,38.8138145 42.2558109,39.6445794 C42.090232,40.4751648 42.090232,41.3057503 42.2558109,42.1363358 C42.4190577,42.9669212 42.7329939,43.7332843 43.1952874,44.430402 C43.6550693,45.1300312 44.2755866,45.6936812 45.0543278,46.121352 C45.8379125,46.5441792 46.777389,46.7542474 47.8723984,46.7542474 Z" id="_2223750654560" fill="#004AAD" fill-rule="nonzero"></path>
            <path d="M62.4616409,48.8703567 C62.4616409,49.0359356 62.3923956,49.1719148 62.2540843,49.2757829 C62.1155935,49.381983 61.9475031,49.4340067 61.7496336,49.4340067 L59.9401055,49.4340067 C59.7275258,49.4340067 59.5569239,49.381983 59.4259677,49.2757829 C59.299855,49.1719148 59.2381441,49.0359356 59.2381441,48.8703567 L59.2381441,32.9105585 C59.2381441,32.7473116 59.299855,32.6113324 59.4259677,32.5051323 C59.5569239,32.4012643 59.7275258,32.3469085 59.9401055,32.3469085 L62.0463482,32.3469085 L69.9471354,38.9424387 L69.9471354,32.9105585 C69.9471354,32.7473116 70.0113578,32.6113324 70.1450049,32.5051323 C70.2759611,32.4012643 70.446563,32.3469085 70.6591427,32.3469085 L72.488404,32.3469085 C72.6862735,32.3469085 72.8543639,32.4012643 72.9928546,32.5051323 C73.1311659,32.6113324 73.2004113,32.7473116 73.2004113,32.9105585 L73.2004113,48.8703567 C73.2004113,49.0359356 73.1311659,49.1719148 72.9928546,49.2757829 C72.8543639,49.381983 72.6862735,49.4340067 72.488404,49.4340067 L70.6591427,49.4340067 C70.446563,49.4340067 70.2759611,49.381983 70.1450049,49.2757829 C70.0113578,49.1719148 69.9471354,49.0359356 69.9471354,48.8703567 L69.9471354,42.7692311 L62.4616409,36.6483724 L62.4616409,48.8703567 L62.4616409,48.8703567 Z" id="_2223750657200" fill="#004AAD" fill-rule="nonzero"></path>
            <path d="M86.4669958,45.2611669 L79.683642,45.2611669 L78.3190063,48.8999564 C78.2398943,49.026069 78.1311827,49.1471587 77.992692,49.2659163 C77.8542013,49.3796509 77.7083555,49.4340067 77.5576662,49.4340067 L75.7777377,49.4340067 C75.5007562,49.4340067 75.2957111,49.3597384 75.1645754,49.2065375 C75.0384628,49.0483137 75.0162182,48.8653337 75.0953301,48.6527541 L81.3152132,32.8908253 C81.3991687,32.7596897 81.5154148,32.6386 81.6612606,32.5248654 C81.8045949,32.4062872 81.9430856,32.3469085 82.0765533,32.3469085 L84.4696441,32.3469085 C84.5808672,32.3469085 84.7118234,32.3913977 84.8650243,32.4753532 C85.0232481,32.5544651 85.1172496,32.633577 85.1518722,32.712689 L91.0057955,48.6726666 C91.089751,48.8900898 91.0576398,49.0730698 90.9069504,49.2164041 C90.7611047,49.3622498 90.5657466,49.4340067 90.3233879,49.4340067 L88.4941266,49.4340067 C88.380392,49.4340067 88.2469243,49.394361 88.0887004,49.3152491 C87.9354996,49.2312936 87.8440096,49.1471587 87.8118984,49.0680468 L86.4669958,45.2611669 L86.4669958,45.2611669 Z M80.7811629,42.4032712 L85.4485868,42.4032712 L83.2433196,36.0352102 L80.7811629,42.4032712 L80.7811629,42.4032712 Z" id="_2223750655904" fill="#004AAD" fill-rule="nonzero"></path>
            <path d="M99.2287709,46.7047352 C100.467294,46.7047352 101.335014,46.3091756 101.829418,45.5182358 C102.323823,44.7271166 102.571025,43.6394622 102.571025,42.2550933 L102.571025,32.9105585 C102.571025,32.7473116 102.630404,32.6113324 102.749162,32.5051323 C102.872763,32.4012643 103.040853,32.3469085 103.253433,32.3469085 L105.181539,32.3469085 C105.359676,32.3469085 105.512876,32.4012643 105.646344,32.5051323 C105.77748,32.6113324 105.844214,32.7473116 105.844214,32.9105585 L105.844214,42.185848 C105.844214,43.9458639 105.567232,45.3772336 105.013449,46.4774454 C104.459845,47.5724548 103.683615,48.3807956 102.689783,48.8999564 C101.700974,49.4216286 100.546406,49.681209 99.2287709,49.681209 C98.0546496,49.681209 96.986549,49.4314952 96.0250073,48.9297355 C95.0683092,48.4229528 94.3044576,47.6194555 93.730941,46.5169116 C93.1624474,45.4168792 92.8806224,43.9953762 92.8806224,42.2550933 L92.8806224,32.9105585 C92.8806224,32.7473116 92.9498678,32.6113324 93.0883585,32.5051323 C93.2266698,32.4012643 93.3947602,32.3469085 93.5924503,32.3469085 L95.4712238,32.3469085 C95.681292,32.3469085 95.8518939,32.4012643 95.9853616,32.5051323 C96.1164972,32.6113324 96.1832311,32.7473116 96.1832311,32.9105585 L96.1832311,42.2550933 C96.1832311,43.0411895 96.2820761,43.77293 96.4797663,44.4503146 C96.6824793,45.1226762 97.0087936,45.666593 97.4588884,46.0818858 C97.9062923,46.4971785 98.4970305,46.7047352 99.2287709,46.7047352 L99.2287709,46.7047352 Z" id="_2223750655376" fill="#004AAD" fill-rule="nonzero"></path>
            <g id="Clipped" transform="translate(9.3738, 1.1567)">
                <mask id="mask-2" fill="white">
                    <use xlink:href="#path-1"></use>
                </mask>
                <g id="Path"></g>
                <path d="M-15.7131341,43.5777513 L-15.7131341,47.6295015 C-15.7131341,48.6776896 -14.860304,49.530699 -13.8146274,49.530699 L-0.40345285,49.530699 C-0.524542522,48.9248919 -0.727255603,48.3366652 -1.01159209,47.7654807 C-1.54061942,46.705094 -2.34896025,45.7383499 -3.30816985,44.8559201 L-11.0383552,44.8559201 L-11.0383552,43.5777513 C-11.0383552,42.5320747 -11.8911852,41.6767332 -12.9370412,41.6767332 L-13.8146274,41.6767332 C-14.860304,41.6767332 -15.7131341,42.5320747 -15.7131341,43.5777513 Z M3.76687547,0.0147101528 L-0.0796500957,0.0147101528 L-0.0796500957,0.526515835 L7.85827127,5.1072933 L7.85827127,5.11231628 L7.86078276,5.11464837 C16.9554244,7.01817803 23.8525128,15.1365678 23.8525128,24.7726149 C23.8525128,33.3012745 18.4485049,40.6384117 10.901479,43.5332621 C10.7258541,45.389791 10.0016482,47.172231 8.97068172,48.8285583 C8.93605905,48.8829141 8.90143637,48.9397814 8.8644816,48.9966487 C20.0578315,46.6308256 28.5272917,36.6435288 28.5272917,24.7726149 C28.5272917,11.1565746 17.3856067,0.0147101528 3.76687547,0.0147101528 L3.76687547,0.0147101528 Z" id="_2223750655232" fill="#004AAD" fill-rule="nonzero" mask="url(#mask-2)"></path>
            </g>
            <polygon id="Path" points="9.37377579 1.15672031 38.2124922 1.15672031 38.2124922 51.1520449 9.37377579 51.1520449"></polygon>
            <polygon id="Path" fill="#FF914D" points="4.79676556 41.0589068 4.79676556 2.22410335 8.19588721 3.8002424 8.19570782 43.9386883"></polygon>
            <polygon id="Path" fill="#2D549E" points="9.52141549 45.0618622 9.52141549 4.41483976 15.4939169 7.18411573 15.4765159 50.1072653"></polygon>
            <polygon id="Path" fill="#00BF63" points="0 36.9947786 0 3.55271368e-15 3.39912165 1.57595966 3.39912165 39.8747395"></polygon>
            <path d="M43.526804,17.3325066 C62.2659241,6.7481929 91.5009177,3.02132187 110.647258,14.8097154 C120.849287,21.0913095 122.505614,29.2746392 137.716451,29.4592337 C145.897986,29.5586169 153.276743,26.2637221 160,21.9737392 C157.400967,25.2011826 154.454452,26.9525878 150.594292,28.6616564 C135.410544,35.3841962 126.421206,31.7988656 114.927733,22.4977436 C95.9159369,7.11217949 66.5189522,9.9325822 46.4462311,21.8535465 C45.1978415,22.6597347 43.5321857,22.3011298 42.7259976,21.0527402 C41.9198095,19.8043505 42.2784143,18.1386948 43.526804,17.3325066 L43.526804,17.3325066 Z" id="_2223750654464" fill="#2D549E"></path>
            <path d="M44.9865176,19.5930266 C65.1387093,6.58153764 101.59567,6.21127233 116.140603,21.3309773 C134.731187,40.6558127 158.31784,24.3392036 160,21.9737392" id="Path"></path>
        </g>
    </g>
</svg>

<svg viewBox="0 0 160 52" xmlns="http://www.w3.org/2000/svg" xmlns:xlink="http://www.w3.org/1999/xlink"><defs><path id="a" d="M0 0h28.839v49.995H0z"/></defs><g fill="none" fill-rule="evenodd"><path fill="#727376" fill-rule="nonzero" d="M64.712 20.647v1.138h-3.006v1.819h2.729v1.127h-2.729v2.799h-1.364v-6.883zM73.746 24.504v1.889h3.283v1.137h-4.648v-6.883h4.579v1.138h-3.214v1.611h2.808v1.108zM87.167 27.53h-1.513l-1.582-6.883h1.355l1.038 4.836h.118l1.236-4.836h1.167l1.256 4.836h.119l1.038-4.836h1.315l-1.572 6.883h-1.533l-1.196-4.44h-.099zM103.115 27.629c-.628 0-1.182-.129-1.662-.386-.482-.257-.86-.648-1.137-1.177-.272-.534-.405-1.191-.405-1.977 0-.791.133-1.449.405-1.978.277-.527.655-.92 1.137-1.177.48-.257 1.034-.385 1.662-.385.632 0 1.189.128 1.67.385.48.257.856.65 1.128 1.177.27.529.405 1.187.405 1.978 0 .786-.136 1.443-.405 1.977-.272.53-.648.92-1.127 1.177-.482.257-1.039.386-1.671.386Zm0-1.177c.585 0 1.03-.188 1.334-.564.31-.376.465-.974.465-1.8 0-.822-.155-1.423-.465-1.799-.304-.376-.749-.564-1.334-.564-.589 0-1.036.188-1.345.564-.304.376-.455.977-.455 1.8 0 .825.15 1.423.455 1.8.309.375.756.563 1.345.563Z"/><path d="M47.872 32.11c1.43 0 2.683.247 3.758.741 1.073.495 1.968 1.162 2.68 1.998a8.564 8.564 0 0 1 1.612 2.818 9.905 9.905 0 0 1 .534 3.223 9.893 9.893 0 0 1-.534 3.224 8.515 8.515 0 0 1-1.612 2.818c-.712.838-1.607 1.508-2.68 2.008-1.075.494-2.329.741-3.758.741-1.47 0-2.758-.247-3.866-.741-1.102-.5-2.017-1.17-2.749-2.008a8.574 8.574 0 0 1-1.651-2.818 9.71 9.71 0 0 1-.544-3.224c0-1.107.18-2.18.544-3.223.368-1.04.92-1.98 1.651-2.818.732-.836 1.647-1.503 2.75-1.998 1.107-.494 2.395-.741 3.865-.741Zm0 14.644c1.034 0 1.929-.21 2.68-.633a5.004 5.004 0 0 0 1.79-1.69 6.331 6.331 0 0 0 .9-2.295 6.6 6.6 0 0 0 0-2.491 6.348 6.348 0 0 0-.9-2.295 4.957 4.957 0 0 0-1.79-1.68c-.751-.42-1.646-.633-2.68-.633-1.095 0-2.034.212-2.818.632-.778.423-1.399.984-1.859 1.681a6.337 6.337 0 0 0-.94 2.295 6.312 6.312 0 0 0 0 2.491 6.32 6.32 0 0 0 .94 2.294 5.14 5.14 0 0 0 1.86 1.691c.783.423 1.722.633 2.817.633ZM62.462 48.87c0 .166-.07.302-.208.406a.804.804 0 0 1-.504.158h-1.81c-.212 0-.383-.052-.514-.158a.5.5 0 0 1-.188-.406V32.91c0-.163.062-.299.188-.405a.802.802 0 0 1 .514-.158h2.106l7.901 6.595v-6.031c0-.164.064-.3.198-.406a.802.802 0 0 1 .514-.158h1.83c.197 0 .365.054.504.158a.492.492 0 0 1 .207.406v15.96c0 .165-.069.3-.207.405a.804.804 0 0 1-.505.158H70.66c-.212 0-.383-.052-.514-.158a.489.489 0 0 1-.198-.406v-6.1l-7.485-6.122V48.87ZM86.467 45.261h-6.783L78.319 48.9c-.08.126-.188.247-.326.366a.676.676 0 0 1-.435.168h-1.78c-.277 0-.482-.074-.613-.227-.127-.159-.149-.342-.07-.554l6.22-15.762c.084-.131.2-.252.346-.366.144-.119.282-.178.416-.178h2.393c.11 0 .242.044.395.128.158.08.252.159.287.238l5.854 15.96c.084.217.052.4-.099.543-.146.146-.341.218-.584.218h-1.829a.938.938 0 0 1-.405-.119c-.154-.084-.245-.168-.277-.247l-1.345-3.807Zm-5.686-2.858h4.668l-2.206-6.368-2.462 6.368ZM99.229 46.705c1.238 0 2.106-.396 2.6-1.187.495-.79.742-1.879.742-3.263v-9.344c0-.164.06-.3.178-.406.124-.104.292-.158.504-.158h1.929c.178 0 .33.054.464.158a.502.502 0 0 1 .198.406v9.275c0 1.76-.277 3.191-.83 4.291-.554 1.095-1.33 1.904-2.324 2.423-.989.522-2.144.781-3.461.781-1.174 0-2.242-.25-3.204-.751-.957-.507-1.72-1.31-2.294-2.413-.569-1.1-.85-2.522-.85-4.262v-9.344c0-.164.069-.3.207-.406a.817.817 0 0 1 .504-.158h1.88c.21 0 .38.054.513.158a.502.502 0 0 1 .198.406v9.344c0 .786.1 1.518.297 2.195.202.673.529 1.217.979 1.632.447.415 1.038.623 1.77.623Z" fill="#004AAD" fill-rule="nonzero"/><g transform="translate(9.374 1.157)"><mask id="b" fill="#fff"><use xlink:href="#a"/></mask><path d="M-15.713 43.578v4.052c0 1.048.853 1.9 1.898 1.9H-.403a7.046 7.046 0 0 0-.609-1.765c-.529-1.06-1.337-2.027-2.296-2.91h-7.73v-1.277a1.904 1.904 0 0 0-1.899-1.901h-.878a1.904 1.904 0 0 0-1.898 1.9ZM3.767.015H-.08v.512l7.938 4.58v.005l.003.003c9.094 1.903 15.992 10.022 15.992 19.658 0 8.528-5.404 15.865-12.952 18.76-.175 1.857-.9 3.64-1.93 5.296l-.107.168c11.194-2.366 19.663-12.353 19.663-24.224C28.527 11.157 17.386.015 3.767.015Z" fill="#004AAD" fill-rule="nonzero" mask="url(#b)"/></g><path d="M9.374 1.157h28.838v49.995H9.374z"/><path fill="#FF914D" fill-rule="nonzero" d="M4.797 41.059V2.224L8.196 3.8v40.139z"/><path fill="#2D549E" fill-rule="nonzero" d="M9.521 45.062V4.415l5.973 2.769-.017 42.923z"/><path fill="#00BF63" fill-rule="nonzero" d="M0 36.995V0l3.399 1.576v38.299z"/><path d="M43.527 17.333C62.266 6.748 91.5 3.02 110.647 14.81c10.202 6.281 11.859 14.465 27.07 14.65 8.181.099 15.56-3.196 22.283-7.486-2.599 3.227-5.546 4.979-9.406 6.688-15.183 6.722-24.173 3.137-35.666-6.164-19.012-15.386-48.409-12.565-68.482-.644a2.69 2.69 0 0 1-2.92-4.521Z" fill="#2D549E" fill-rule="nonzero"/><path d="M44.987 19.593c20.152-13.011 56.609-13.382 71.154 1.738 18.59 19.325 42.177 3.008 43.859.643"/></g></svg>
